src/assets/icons/horns-gesture.svg

<svg width="85" height="158" viewBox="0 0 85 158" fill="none" xmlns="http://www.w3.org/2000/svg">
<path d="M68.9743 158C59.5022 158 27.2175 156.136 24.7167 155.455C24.5638 155.024 24.4019 154.594 24.2399 154.156C24.2399 154.156 22.8367 150.473 22.5578 149.726L21.5773 147.1C21.0017 145.545 20.4078 143.93 19.7963 142.354C19.4094 141.357 18.9866 140.355 18.5728 139.378C18.366 138.88 17.7723 137.479 17.7723 137.479C17.5294 136.893 17.2865 136.308 17.0706 135.729C16.6928 134.712 16.324 133.695 15.9552 132.679C15.2445 130.726 14.5068 128.713 13.7243 126.741C12.9147 124.701 12.195 122.601 11.4934 120.574C11.0706 119.349 10.6388 118.083 10.1891 116.837C9.81126 115.794 9.36149 114.757 8.9297 113.754C8.65085 113.121 8.38098 112.488 8.12012 111.848C6.28505 107.33 4.74682 102.638 3.53244 97.8918C2.86677 95.2729 2.49796 92.8694 2.40801 90.5264C2.35403 89.1529 2.31805 87.7728 2.28207 86.3993L2.27308 86.1503C2.2281 84.4402 2.17412 82.6964 2.11116 80.9863C1.98522 77.7211 1.83229 74.7991 1.65238 72.0455C1.58942 71.103 1.47249 70.1469 1.36454 69.2178C1.28358 68.5446 1.20262 67.9117 1.13965 67.2789C1.04969 66.2757 0.97773 65.2591 0.905766 64.2761L0.68088 61.2936C0.545948 59.6038 0.420013 57.8869 0.339053 56.2038C0.16814 52.6826 0.0691893 49.5789 0.0152171 46.7243C-0.0207646 44.5228 0.00622164 42.1326 0.105171 39.4127C0.150149 38.0662 0.249098 36.6995 0.348049 35.3732C0.402022 34.6326 0.455995 33.8987 0.500971 33.1581C0.527957 32.7609 0.536953 32.3637 0.554944 31.9665C0.572935 31.4414 0.590926 30.997 0.617912 30.5527C0.635902 30.2497 0.68088 29.94 0.716862 29.6438C0.743848 29.4149 0.77983 29.1859 0.797821 28.9638C0.905766 27.8394 1.01371 26.7084 1.12166 25.584C1.25659 24.1298 1.59841 22.9785 2.19211 21.9619C2.71385 21.0665 3.32555 20.575 4.15312 20.3662C4.78281 20.2114 5.37651 20.1306 5.91623 20.1306C6.77081 20.1306 7.55341 20.3326 8.22805 20.7299C9.57738 21.5243 10.4499 22.6083 10.8098 23.9547L11.0526 24.83C11.2775 25.6043 11.4934 26.3717 11.6193 27.1325C11.8712 28.7281 12.0061 30.142 12.0421 31.4548C12.0691 32.6465 12.249 33.8314 12.4199 34.9692C12.4829 35.3732 12.5459 35.7771 12.5998 36.1878C12.6988 36.9082 12.7798 37.6218 12.8607 38.3422C12.9687 39.2848 13.0856 40.2611 13.2295 41.2171C13.4454 42.6848 13.7063 44.1659 13.9582 45.6L14.3269 47.7476C14.5429 48.9865 14.7588 50.2656 15.0017 51.5178C15.3165 53.1404 15.6763 54.864 16.135 56.951C16.18 57.1733 16.1531 57.3147 16.0182 57.5032C15.1456 58.7419 14.6058 60.0683 14.408 61.4619C14.1741 63.0845 14.1651 64.7811 14.354 66.646L14.4439 67.5885C14.5429 68.6253 14.6508 69.7026 14.8487 70.7596C15.0916 72.0388 15.3794 73.3314 15.6673 74.5836C15.9282 75.7484 16.171 76.8459 16.387 77.9365C16.8637 80.34 17.6013 82.7301 18.312 85.0461C18.5818 85.9145 18.8426 86.7696 19.0946 87.6246C19.5983 89.3347 20.048 90.7149 20.5249 91.9537C20.7947 92.6471 21.1545 93.3137 21.5143 93.96C21.6403 94.1822 21.7662 94.411 21.8831 94.6333C22.5129 95.8249 23.3224 97.2119 24.5547 98.4641C25.9491 99.878 27.7481 100.753 29.8981 101.049C30.3479 101.11 30.8066 101.144 31.2564 101.144C32.3628 101.144 33.4693 100.962 34.5307 100.598C35.7092 100.194 36.8516 99.7231 37.949 99.2586C38.1649 99.1643 38.2548 99.1576 38.3088 99.1576C38.3628 99.1576 38.4347 99.1711 38.5158 99.2047C39.4512 99.5615 40.5307 99.7837 41.916 99.9049C42.2489 99.9318 42.5817 99.9453 42.9054 99.9453C44.8215 99.9453 46.6297 99.4538 48.4378 98.4439C50.5336 97.2724 51.8559 95.7038 52.5036 93.6503C52.6475 93.1858 52.8005 92.7212 52.9624 92.2567C53.1693 91.6306 53.3492 91.1054 53.5111 90.5803C53.5472 90.4793 53.5741 90.3783 53.5921 90.2706C53.853 90.5533 54.1138 90.8294 54.3838 91.1121C54.9234 91.6844 55.4631 92.2567 55.9669 92.8289C56.8575 93.8455 57.5501 94.8285 58.0808 95.8317C58.5576 96.7271 59.2862 97.5013 59.9969 98.2083C60.2217 98.4237 60.4287 98.6526 60.6446 98.8748C61.2473 99.5143 61.859 100.161 62.6866 100.693C62.7585 100.753 62.8125 100.794 62.8753 100.82C62.8753 100.82 65.5831 102.376 66.5185 102.908C66.7524 103.036 67.0043 103.163 67.3101 103.197C67.3912 103.211 67.4811 103.211 67.58 103.211C67.8229 103.211 68.1648 103.17 68.4075 102.995C68.5965 102.86 68.6864 102.685 68.6775 102.504C68.6685 102.288 68.5065 102.08 68.2276 101.904L67.445 101.413C66.7435 100.975 66.0238 100.524 65.2952 100.107C64.5306 99.6693 63.739 99.1778 63.1542 98.5516L62.4886 97.8447C61.8679 97.1782 61.2922 96.5723 60.7524 95.9663C60.5906 95.7912 60.4737 95.5961 60.3476 95.3873C60.2667 95.2661 60.1948 95.1449 60.1138 95.0238L59.5921 94.2562C59.0884 93.5022 58.5845 92.7482 58.0269 92.0615C57.6491 91.5901 57.1903 91.1323 56.7944 90.7284C56.4617 90.3917 56.1198 90.0417 55.814 89.6848C55.0764 88.8298 54.3747 88.0085 53.853 87.1534C52.6206 85.1269 50.5967 83.7332 47.6462 82.885C44.2008 81.8952 40.5488 80.8046 37.1845 79.283C35.997 78.7444 35.0885 78.2664 34.3149 77.7614C31.3554 75.8292 29.0256 73.8565 27.1815 71.7224C26.4978 70.9279 25.9671 70.0392 25.5802 69.0158C25.3554 68.4234 25.3913 67.7704 25.7063 66.9692C26.03 66.1411 26.5698 65.3466 27.3974 64.4983L27.6222 64.6329C28.0991 64.8753 28.5488 65.1043 28.9805 65.36C31.2385 66.7201 33.7931 67.7972 36.0419 68.7533C37.2024 69.2447 38.5067 69.7161 39.9011 70.1536C40.4588 70.3287 41.0344 70.423 41.6012 70.5105C41.871 70.5576 42.1409 70.598 42.4017 70.6519C42.5277 70.6788 42.6627 70.6923 42.7886 70.6923C43.3103 70.6923 43.742 70.4499 43.895 70.0594C44.3357 68.9687 44.7496 67.878 45.1364 66.8614C45.1994 66.6931 45.2444 66.5315 45.2893 66.3565C46.8724 66.6729 48.4916 66.8817 50.1289 66.9692C51.1273 67.023 53.3402 67.1509 53.3402 67.1509C54.6446 67.2249 55.9759 67.3057 57.2982 67.3664C59.1962 67.4606 60.7975 67.9992 62.2098 69.0158C63.748 70.1268 65.1332 71.4463 66.4466 73.0621C66.7885 73.4863 67.1302 73.9172 67.4721 74.348C68.1108 75.1627 68.7044 75.91 69.3162 76.6371C70.1528 77.6133 71.0253 78.5425 71.9069 79.3907C72.4915 79.9563 73.1752 80.4545 73.8319 80.9392L74.0837 81.1278C74.6685 81.5586 75.2891 81.9828 75.9908 82.4204C76.7194 82.8782 77.403 83.4303 78.2036 84.2179L78.3476 84.3594C79.7329 85.7194 81.1632 87.1265 82.3325 88.6278C83.4839 90.1158 84.0777 91.7046 84.5004 93.0646C84.9593 94.5525 84.8692 96.0875 84.7883 97.5754L84.7343 98.5247C84.6443 100.605 84.3116 102.652 83.7628 104.611L83.6639 104.894C83.349 106.018 83.0163 107.183 82.6025 108.307C82.0717 109.775 81.5049 111.263 80.9652 112.697C80.2456 114.602 79.544 116.467 78.8873 118.305C78.5094 119.355 78.2306 120.433 77.9607 121.469C77.9607 121.469 77.7089 122.426 77.5919 122.829L77.1331 124.439C76.7553 125.751 76.3686 127.105 76.0357 128.437C75.6759 129.858 75.3431 131.313 75.0192 132.719L74.5155 134.894L74.0477 136.84C73.7329 138.146 73.4091 139.452 73.1392 140.752C72.8963 141.909 72.6984 143.088 72.5006 144.232L72.2127 145.929C72.1587 146.205 72.1137 146.447 72.0507 146.663C71.8258 147.505 71.628 148.339 71.619 149.221C71.619 149.53 71.5381 149.867 71.466 150.191L71.412 150.413C70.9533 152.533 70.7914 154.782 70.9173 157.475C70.9263 157.637 70.9173 157.791 70.9083 157.94C70.6834 157.966 70.1528 158 68.9743 158Z" fill="black"/>
<path d="M73.2017 77.9565C72.7969 77.5928 72.4101 77.2293 72.0503 76.8456C71.3305 76.078 70.3951 75.0547 69.5945 73.991C68.2901 72.2674 66.752 70.6246 65.4026 69.1771C63.9543 67.6286 62.2542 66.6458 60.2033 66.1475C59.1057 65.8849 57.9093 65.7166 56.4431 65.6156H56.4252V65.4945C56.4162 64.9625 56.4072 64.5586 56.4341 64.1413C56.5511 62.5523 56.4072 60.8557 55.9843 58.7956C55.7414 57.6106 55.6065 56.5267 55.5886 55.4898C55.5346 52.3054 55.6695 48.8515 55.9934 44.9265C56.0474 44.2936 56.0383 43.6405 56.0293 43.0144C56.0203 42.6373 56.0203 42.2738 56.0203 41.9102C56.0293 41.3447 56.0474 40.7724 56.0743 40.2069C56.0743 40.2069 56.4341 28.8559 56.4521 27.9335C56.4791 26.964 56.4971 26.0012 56.5151 25.0317C56.5511 23.0187 56.5961 20.9383 56.7129 18.8984C56.8569 16.3534 57.1538 14.4212 57.6666 12.6438C57.7294 12.4283 57.7565 12.2129 57.7834 11.9975C57.8015 11.8157 57.8194 11.6676 57.8555 11.5195C58.0083 10.8462 58.1432 10.1662 58.2781 9.49292C58.611 7.82998 58.9529 6.11318 59.5466 4.47043C59.8345 3.67599 60.1943 2.9354 60.6259 2.26888C61.3906 1.0974 62.7669 0.356826 64.719 0.0807909C65.1597 0.0336629 65.6365 0 66.1402 0C66.3021 0 66.4641 0.00673257 66.6259 0.0134652C67.7773 0.0605931 68.632 0.47128 69.3337 1.30612C69.8193 1.89858 70.2152 2.52471 70.53 3.21143C71.6905 5.76981 71.8164 8.41571 71.8523 11.1223C71.8614 11.957 71.8704 12.7986 71.8704 13.6335C71.8793 15.4715 71.8883 17.37 71.9692 19.2349C72.0322 20.6758 72.1852 22.1098 72.338 23.5034C72.401 24.042 72.455 24.5806 72.509 25.1193C72.554 25.53 72.599 25.9339 72.653 26.3446C72.7518 27.1323 72.8419 27.8661 72.8778 28.5865C73.0577 32.0403 73.2826 36.5781 73.3906 41.1158C73.4175 42.2401 73.3995 43.3847 73.3816 44.4888V44.61C73.3726 45.4987 73.3545 46.4144 73.3635 47.3232C73.3726 48.2321 73.2826 49.1613 73.1927 50.0634C73.1387 50.6491 73.0756 51.2484 73.0397 51.8409C72.9947 52.6824 72.9768 53.5375 72.9588 54.3587C72.9407 54.9782 72.9318 55.6043 72.9048 56.2237C72.8688 56.9912 72.8329 57.7587 72.7969 58.5263C72.7429 59.5025 72.6889 60.5056 72.6619 61.4953L72.6259 62.5254C72.545 64.7808 72.4641 67.1103 72.6619 69.4195C72.6979 69.7899 72.7068 70.1668 72.7249 70.5372C72.7429 70.8536 72.7518 71.1296 72.7699 71.4057L73.2017 77.9565Z" fill="black"/>
<path d="M31.6346 99.3189C30.6991 99.3189 29.7185 99.1776 28.6121 98.888C27.8745 98.6928 27.2089 98.3024 26.5793 97.6896C25.4098 96.5586 24.6272 95.2727 23.9255 94.0541C22.8281 92.1488 22.0005 90.1559 21.3978 87.9611C21.0559 86.7223 20.6781 85.4633 20.3183 84.2514C19.9226 82.9319 19.5178 81.5651 19.1579 80.2186C18.888 79.2222 18.6812 78.1989 18.4743 77.2159C18.3574 76.6638 18.2494 76.1253 18.1325 75.5866C17.9976 74.9875 17.8536 74.3815 17.7007 73.7824C17.4128 72.6041 17.116 71.3855 16.9181 70.1939C16.3694 66.8949 16.2973 64.1816 16.7022 61.6704C16.8911 60.4788 17.125 59.4958 17.6647 58.5667C18.2225 57.5973 19.104 56.8835 20.2914 56.446C20.7411 56.2776 21.3258 56.2238 21.7217 56.2036C22.2794 56.1699 22.7922 56.1497 23.2869 56.1497C25.041 56.1497 26.5341 56.3787 27.8566 56.8499C28.6392 57.1259 29.2238 57.4491 29.6557 57.8463C30.5461 58.6609 31.3377 59.4015 32.0484 60.1893C32.3992 60.5798 32.5702 61.0443 32.714 61.5493C32.2283 61.455 31.7515 61.4078 31.2658 61.4078C30.2763 61.4078 29.2688 61.6031 28.2073 62.007C25.9945 62.8419 24.6001 64.2288 23.9436 66.2486C23.7637 66.8006 23.5748 67.4605 23.5208 68.1269C23.4398 69.056 23.7996 69.9178 24.2044 70.7864C25.05 72.6041 26.6421 74.0516 28.1894 75.452C29.8625 76.9668 31.6706 78.3267 33.5687 79.4983C33.6855 79.5656 33.7305 79.6194 33.7216 79.8079L33.7126 79.9763C33.6496 81.3767 33.5867 82.8242 33.5417 84.2514C33.5056 85.2209 33.4877 86.1971 33.4697 87.1666L33.4428 88.4728L26.5432 89.5971C25.9226 89.6981 25.2928 89.7991 24.6812 89.9203C23.8086 90.0953 23.4308 90.5801 23.6557 91.2601C24.0604 92.4988 24.5732 93.5626 25.2028 94.5321C25.9675 95.7103 27.0649 96.7269 28.5402 97.6358C29.7456 98.3764 31.1219 98.4774 32.3183 98.4774L32.7951 98.4707C33.0019 98.464 33.2089 98.4505 33.4157 98.437C33.5777 98.4235 33.7395 98.41 33.9105 98.41C34.7831 98.3832 35.5476 98.1676 36.2043 97.932L36.3933 98.06C35.9974 98.2619 35.5836 98.4168 35.1788 98.5716C34.9899 98.6457 34.801 98.7131 34.6121 98.7871C33.6676 99.1371 32.6961 99.3189 31.6346 99.3189Z" fill="black"/>
<path d="M53.9432 65.5481C53.2056 65.5076 52.5039 65.474 51.7932 65.4538C48.7888 65.3663 45.8653 64.6997 43.0407 64.0601L42.564 63.9525C40.8099 63.5552 39.0558 63.1512 37.3107 62.7473L35.2866 62.2827C35.0707 61.7576 35.0348 61.3469 35.1697 60.943C35.7543 59.1386 36.555 57.5498 37.6074 56.0821C38.3721 55.0116 39.4875 54.2507 41.0077 53.7459C42.4201 53.2813 43.8413 53.0524 45.3525 53.0524C46.7649 53.0524 48.2221 53.2477 49.8053 53.6584C50.6149 53.867 51.1906 54.3181 51.8472 54.8365L52.0991 55.0385C53.1696 55.8733 53.4754 56.9775 53.7183 58.1422C53.9522 59.2396 54.1231 60.3572 54.294 61.4412L54.402 62.1346C54.4469 62.4173 54.465 62.7339 54.456 63.1243C54.4379 63.7842 54.411 64.4439 54.3749 65.1374L54.357 65.5749L53.9432 65.5481Z" fill="black"/>
<path d="M42.2486 98.2752C41.0882 98.2752 40.0448 98.0261 39.0732 97.5145C37.1932 96.5248 36.1137 95.1244 35.7718 93.2325C35.556 92.0274 35.556 90.7953 35.556 89.5969C35.556 88.9573 35.556 88.3178 35.52 87.6782C35.466 86.4528 35.565 85.2006 35.664 83.9954C35.7269 83.2347 35.7899 82.4739 35.8168 81.7198C35.8258 81.3765 35.8258 81.0264 35.8258 80.6561L36.0597 80.7638C36.8513 81.1139 37.589 81.4371 38.3356 81.7467C41.1062 82.8846 43.49 83.753 46.0986 84.3119C47.1331 84.5341 48.4644 84.8707 49.5619 85.5238C50.1286 85.8603 50.5424 86.2105 50.8213 86.5874C50.8213 86.5874 51.424 87.382 51.5499 87.5502C51.8108 87.9071 51.9008 88.2167 51.8468 88.5534C51.6219 89.8932 51.2531 91.2195 50.7313 92.4853C50.5604 92.896 50.3535 93.3065 50.1467 93.7039C49.9487 94.0741 49.7598 94.4444 49.598 94.8215C49.1031 95.9525 47.9338 96.7132 46.7463 97.3596C45.6579 97.9521 44.3266 98.1204 43.0581 98.2349C42.7793 98.2685 42.5094 98.2752 42.2486 98.2752ZM37.2832 92.3505C37.2742 92.6401 37.2651 92.9161 37.3101 93.1922L37.3461 93.4143C37.4271 93.9664 37.5171 94.5386 37.7869 95.0841C38.2547 96.0266 39.1092 96.6594 40.2696 96.9018C40.7824 97.0095 41.2502 97.1106 41.7268 97.1106L42.9593 97.1172C43.544 97.1172 44.2366 97.1038 44.9383 97.0028C46.1797 96.821 47.1781 96.2016 47.9876 95.1177C48.7704 94.0741 49.247 92.896 49.409 91.6234C49.544 90.5866 49.6968 89.5431 49.8317 88.6207C49.9487 87.8667 49.6518 87.557 48.6803 87.4021C45.478 86.8837 42.2486 86.6144 38.9383 86.3653C38.8124 86.3518 38.6954 86.3518 38.5964 86.3518C37.6609 86.3518 37.508 86.8972 37.4271 87.1934C37.2021 88.0283 37.3101 90.9704 37.2651 91.3878L37.2832 92.3505Z" fill="black"/>
<path d="M42.0144 68.9956C41.4927 68.8743 41.0969 68.7868 40.7191 68.6859C39.2348 68.2953 37.8766 67.723 36.3923 67.0701L35.3308 66.6122C34.3683 66.1948 33.3968 65.7773 32.4612 65.333C31.5078 64.8753 30.5812 64.3973 29.6097 63.8923L28.998 63.5759C29.6637 63.2594 30.2124 63.1112 30.7792 63.0844C30.8691 63.0776 30.9681 63.0776 31.0669 63.0776C31.8045 63.0776 32.5602 63.2055 33.3788 63.4748C34.4043 63.8115 35.4748 64.0807 36.5003 64.3366L37.0309 64.4713C38.5782 64.8618 40.1344 65.2455 41.7086 65.636L43.1928 66.0063L42.0144 68.9956Z" fill="black"/>
<path d="M32.4168 96.727C30.8966 96.7202 29.7452 96.2827 28.9985 95.4343C27.9011 94.1754 26.7766 92.8288 26.093 91.3678C26.4709 91.287 26.8216 91.213 27.1904 91.1591C28.9805 90.8898 30.7796 90.6341 32.5787 90.3782L33.4333 90.257C33.4243 90.5599 33.4243 90.7956 33.4422 91.0313C33.4962 91.8525 33.5683 92.8087 33.6761 93.7579C33.7572 94.5186 34.0899 95.2727 34.7106 96.1278L34.9895 96.5183C34.6747 96.6126 34.3238 96.6664 33.919 96.6934C33.5592 96.7202 33.1635 96.727 32.6507 96.727H32.4168Z" fill="black"/>
<path d="M42.6539 95.5487C42.0062 95.5487 41.4126 95.4814 40.8458 95.3534C40.0903 95.1785 39.6404 94.7341 39.5416 94.0743C39.4515 93.4751 39.4426 92.8557 39.4336 92.2498L39.4245 91.6843C39.4065 91.058 39.4065 90.4319 39.4065 89.8058V88.0284C41.5565 88.1496 46.1262 88.668 47.6554 88.9575C47.6105 89.2538 47.5565 89.5635 47.5025 89.8664L47.3405 90.7281C47.2415 91.2736 47.1516 91.7516 47.0706 92.2363C46.9538 92.9836 46.6299 93.6973 46.1082 94.3571C45.5864 95.0235 44.8308 95.3804 43.7244 95.4882C43.3646 95.5285 42.9958 95.5487 42.6539 95.5487Z" fill="black"/>
</svg>

<svg xmlns="http://www.w3.org/2000/svg" width="85" height="158" fill="none"><path fill="#000" d="M68.97 158c-9.47 0-41.75-1.86-44.25-2.54l-.48-1.3-1.68-4.43-.98-2.63c-.58-1.56-1.17-3.17-1.78-4.75a472.57 472.57 0 0 0-2.02-4.88c-.25-.58-.5-1.16-.7-1.74-.39-1.02-.76-2.03-1.12-3.05-.72-1.95-1.45-3.97-2.24-5.94-.8-2.04-1.53-4.14-2.23-6.17-.42-1.22-.85-2.49-1.3-3.73-.38-1.05-.83-2.08-1.26-3.09a108.97 108.97 0 0 1-5.4-15.86 35.13 35.13 0 0 1-1.12-7.36c-.06-1.38-.1-2.76-.13-4.13v-.25c-.05-1.71-.1-3.45-.17-5.16-.12-3.27-.28-6.2-.46-8.94-.06-.95-.18-1.9-.29-2.83-.08-.68-.16-1.3-.22-1.94-.09-1-.16-2.02-.23-3l-.23-2.99C.55 59.6.42 57.9.34 56.2c-.17-3.52-.27-6.62-.32-9.48-.04-2.2-.01-4.59.09-7.3.04-1.35.14-2.72.24-4.05l.15-2.21c.03-.4.04-.8.05-1.2l.07-1.4c.02-.31.06-.62.1-.92l.08-.68.32-3.38c.14-1.45.48-2.6 1.07-3.62a3.06 3.06 0 0 1 1.96-1.6 7.46 7.46 0 0 1 1.77-.23c.85 0 1.63.2 2.3.6a5.3 5.3 0 0 1 2.59 3.22l.24.88c.23.77.44 1.54.57 2.3.25 1.6.39 3.01.42 4.32.03 1.2.2 2.38.38 3.52.06.4.13.8.18 1.22.1.72.18 1.43.26 2.15.1.94.23 1.92.37 2.88.22 1.46.48 2.95.73 4.38l.37 2.15c.21 1.24.43 2.52.67 3.77.32 1.62.68 3.34 1.14 5.43.04.22.01.36-.12.55a9.03 9.03 0 0 0-1.61 3.96 21.12 21.12 0 0 0-.06 5.19l.1.94c.1 1.04.2 2.11.4 3.17.24 1.28.53 2.57.82 3.82.26 1.17.5 2.27.72 3.36.47 2.4 1.21 4.79 1.92 7.1l.78 2.58c.5 1.71.96 3.1 1.43 4.33.27.7.63 1.36 1 2.01l.36.67c.63 1.2 1.44 2.58 2.67 3.83a9.04 9.04 0 0 0 5.35 2.59 10.17 10.17 0 0 0 4.63-.45 52.3 52.3 0 0 0 3.42-1.34c.21-.1.3-.1.36-.1.05 0 .12.01.2.04a12.47 12.47 0 0 0 4.4.75c1.91 0 3.72-.5 5.53-1.5a8.17 8.17 0 0 0 4.06-4.8l.46-1.4c.2-.62.39-1.14.55-1.67.04-.1.06-.2.08-.3l.8.83c.53.57 1.07 1.15 1.58 1.72.89 1.02 1.58 2 2.11 3 .48.9 1.2 1.67 1.92 2.38.22.21.43.44.64.66a10.88 10.88 0 0 0 2.24 1.95l3.64 2.09a2.11 2.11 0 0 0 1.06.3c.24 0 .58-.04.83-.21.19-.14.28-.31.27-.5-.01-.21-.17-.42-.45-.6l-.79-.49c-.7-.44-1.42-.89-2.14-1.3a9.09 9.09 0 0 1-2.15-1.56l-.66-.7c-.62-.67-1.2-1.28-1.74-1.88-.16-.18-.28-.37-.4-.58l-.24-.37-.52-.76c-.5-.76-1-1.51-1.56-2.2-.38-.47-.84-.93-1.24-1.33-.33-.34-.67-.69-.98-1.05a20.03 20.03 0 0 1-1.96-2.53c-1.23-2.02-3.25-3.42-6.2-4.27a77.2 77.2 0 0 1-10.47-3.6 21.28 21.28 0 0 1-2.87-1.52 33.34 33.34 0 0 1-7.13-6.04 8.93 8.93 0 0 1-1.6-2.7c-.22-.6-.19-1.25.13-2.05.32-.83.86-1.62 1.69-2.47l.22.13c.48.25.93.47 1.36.73 2.26 1.36 4.81 2.44 7.06 3.4 1.16.48 2.47.96 3.86 1.4.56.17 1.13.26 1.7.35l.8.14c.13.03.26.04.39.04.52 0 .95-.24 1.1-.63.45-1.1.86-2.18 1.25-3.2l.15-.5c1.58.31 3.2.52 4.84.6l3.21.2c1.3.06 2.64.15 3.96.2 1.9.1 3.5.64 4.91 1.66a22.07 22.07 0 0 1 4.24 4.04l1.02 1.29c.64.81 1.23 1.56 1.85 2.29.83.97 1.7 1.9 2.59 2.75.58.57 1.27 1.06 1.92 1.55l.25.19c.59.43 1.2.85 1.91 1.29.73.46 1.41 1.01 2.21 1.8l.15.14a44.74 44.74 0 0 1 3.98 4.27 13.63 13.63 0 0 1 2.17 4.43c.46 1.5.37 3.03.29 4.52l-.06.94a26.9 26.9 0 0 1-.97 6.1l-.1.27a45.1 45.1 0 0 1-1.06 3.42c-.53 1.47-1.1 2.95-1.63 4.39a333.9 333.9 0 0 0-2.08 5.6c-.38 1.06-.66 2.13-.93 3.17 0 0-.25.96-.37 1.36l-.46 1.6c-.37 1.32-.76 2.67-1.1 4-.35 1.43-.69 2.88-1.01 4.29l-.5 2.17-.47 1.95c-.32 1.3-.64 2.61-.91 3.91-.24 1.16-.44 2.34-.64 3.48l-.29 1.7c-.05.28-.1.52-.16.73-.22.84-.42 1.68-.43 2.56 0 .31-.08.65-.15.97l-.06.22a26.84 26.84 0 0 0-.5 7.06c.02.17 0 .32 0 .47-.23.03-.76.06-1.94.06Z"/><path fill="#000" d="M73.2 77.96c-.4-.37-.79-.73-1.15-1.11-.72-.77-1.65-1.8-2.46-2.86-1.3-1.72-2.84-3.37-4.19-4.81a10.2 10.2 0 0 0-5.2-3.03c-1.1-.27-2.3-.43-3.76-.53h-.01v-.13c-.01-.53-.02-.93 0-1.35.12-1.59-.02-3.28-.45-5.34a17.97 17.97 0 0 1-.4-3.31c-.05-3.18.09-6.64.41-10.56.06-.64.05-1.29.04-1.92l-.01-1.1c0-.57.03-1.14.05-1.7l.38-12.28.07-2.9c.03-2.01.08-4.1.2-6.13.14-2.55.43-4.48.95-6.26.06-.21.09-.43.11-.64.02-.18.04-.33.08-.48.15-.67.28-1.35.42-2.03.33-1.66.67-3.38 1.27-5.02.28-.8.64-1.53 1.08-2.2.76-1.17 2.14-1.91 4.09-2.19a13.34 13.34 0 0 1 1.9-.07c1.16.05 2.01.46 2.71 1.3.49.59.89 1.21 1.2 1.9 1.16 2.56 1.29 5.2 1.32 7.91l.02 2.51c0 1.84.02 3.74.1 5.6.06 1.45.22 2.88.37 4.27l.17 1.62.14 1.22c.1.8.2 1.53.23 2.25.18 3.45.4 7.99.51 12.53.03 1.12.01 2.26 0 3.37v.12c-.02.89-.04 1.8-.03 2.71.01.91-.08 1.84-.17 2.74l-.15 1.78c-.05.84-.06 1.7-.08 2.52l-.06 1.86-.1 2.3c-.06.98-.11 1.99-.14 2.98l-.03 1.03c-.08 2.25-.17 4.58.03 6.89.04.37.05.75.06 1.12l.05.87.43 6.55ZM31.63 99.32c-.93 0-1.91-.14-3.02-.43-.74-.2-1.4-.59-2.03-1.2a15.79 15.79 0 0 1-2.65-3.64c-1.1-1.9-1.93-3.9-2.53-6.09-.34-1.24-.72-2.5-1.08-3.7-.4-1.33-.8-2.7-1.16-4.04-.27-1-.48-2.02-.69-3l-.34-1.63c-.13-.6-.28-1.2-.43-1.8-.29-1.19-.58-2.4-.78-3.6a26 26 0 0 1-.22-8.52 8.6 8.6 0 0 1 .96-3.1 4.84 4.84 0 0 1 4.06-2.37c.56-.03 1.07-.05 1.57-.05 1.75 0 3.24.23 4.57.7.78.28 1.36.6 1.8 1 .89.81 1.68 1.55 2.39 2.34.35.39.52.85.66 1.36-.48-.1-.96-.14-1.44-.14-1 0-2 .2-3.06.6-2.22.83-3.61 2.22-4.27 4.24a8.37 8.37 0 0 0-.42 1.88c-.08.93.28 1.79.68 2.66.85 1.81 2.44 3.26 3.99 4.66a36.96 36.96 0 0 0 5.38 4.05c.12.07.16.12.15.3v.18c-.07 1.4-.13 2.84-.18 4.27l-.07 2.92-.03 1.3-6.9 1.13c-.62.1-1.25.2-1.86.32-.87.18-1.25.66-1.02 1.34.4 1.24.91 2.3 1.54 3.27.77 1.18 1.86 2.2 3.34 3.1 1.2.75 2.58.85 3.78.85h.48l.62-.04a7.4 7.4 0 0 0 2.79-.5l.18.12c-.4.2-.8.36-1.21.51l-.57.22c-.94.35-1.91.53-2.98.53ZM53.94 65.55c-.73-.04-1.44-.08-2.15-.1-3-.08-5.92-.75-8.75-1.39l-.48-.1-5.25-1.21-2.02-.47c-.22-.52-.26-.93-.12-1.34.58-1.8 1.38-3.39 2.44-4.86a6.5 6.5 0 0 1 3.4-2.33 13.7 13.7 0 0 1 4.34-.7c1.41 0 2.87.2 4.46.6.8.22 1.38.67 2.04 1.19l.25.2c1.07.83 1.38 1.94 1.62 3.1.23 1.1.4 2.22.57 3.3l.11.7c.05.28.07.6.06.98l-.09 2.02-.01.43-.42-.02Z"/><path fill="#000" d="M42.25 98.28c-1.16 0-2.2-.25-3.18-.77a5.84 5.84 0 0 1-3.3-4.28c-.21-1.2-.21-2.43-.21-3.63 0-.64 0-1.28-.04-1.92a29.5 29.5 0 0 1 .14-3.68c.07-.77.13-1.53.16-2.28v-1.06l.24.1c.8.35 1.53.68 2.28.99a44.7 44.7 0 0 0 7.76 2.56c1.03.22 2.36.56 3.46 1.21.57.34.98.7 1.26 1.07l.73.96c.26.36.35.67.3 1a15.98 15.98 0 0 1-1.7 5.15c-.2.37-.39.74-.55 1.12-.5 1.13-1.67 1.9-2.85 2.54-1.1.6-2.42.76-3.7.87a6.7 6.7 0 0 1-.8.05Zm-4.97-5.93c0 .29-.01.57.03.84l.04.22c.08.56.17 1.13.44 1.67a3.42 3.42 0 0 0 2.48 1.82c.51.1.98.21 1.46.21h1.23c.58 0 1.28 0 1.98-.1a4.5 4.5 0 0 0 3.05-1.9 7.3 7.3 0 0 0 1.42-3.49c.13-1.03.29-2.08.42-3 .12-.75-.18-1.06-1.15-1.22-3.2-.52-6.43-.79-9.74-1.03-.13-.02-.24-.02-.34-.02-.94 0-1.1.55-1.17.84-.23.84-.12 3.78-.16 4.2l.01.96ZM42.01 69l-1.3-.31c-1.48-.4-2.83-.97-4.32-1.62l-1.06-.46c-.96-.42-1.93-.83-2.87-1.28a99.9 99.9 0 0 1-2.85-1.44l-.61-.31a4.52 4.52 0 0 1 1.78-.5h.29c.73 0 1.49.13 2.3.4 1.03.33 2.1.6 3.13.86l.53.13c1.55.4 3.1.78 4.68 1.17l1.48.37L42.01 69ZM32.42 96.73c-1.52-.01-2.67-.45-3.42-1.3a18.41 18.41 0 0 1-2.9-4.06c.37-.08.72-.16 1.09-.21 1.79-.27 3.59-.53 5.39-.78l.85-.12.01.77c.06.82.13 1.78.24 2.73.08.76.41 1.51 1.03 2.37l.28.39c-.32.1-.67.15-1.07.17-.36.03-.76.04-1.27.04h-.23Z"/><path fill="#000" d="M42.65 95.55c-.64 0-1.24-.07-1.8-.2-.76-.17-1.21-.62-1.3-1.28-.1-.6-.1-1.21-.12-1.82v-.57c-.02-.62-.02-1.25-.02-1.87v-1.78c2.15.12 6.72.64 8.25.93l-.16.9-.16.87-.27 1.5a4.54 4.54 0 0 1-.96 2.13c-.52.66-1.28 1.02-2.39 1.13-.36.04-.72.06-1.07.06Z"/></svg>
